svg/tune_variant.svg

<svg xmlns="http://www.w3.org/2000/svg" viewBox="0 0 24 24"><path d="M8 13c-1.86 0-3.41 1.28-3.86 3H2v2h2.14c.45 1.72 2 3 3.86 3s3.41-1.28 3.86-3H22v-2H11.86c-.45-1.72-2-3-3.86-3m0 6c-1.1 0-2-.9-2-2s.9-2 2-2 2 .9 2 2-.9 2-2 2M19.86 6c-.45-1.72-2-3-3.86-3s-3.41 1.28-3.86 3H2v2h10.14c.45 1.72 2 3 3.86 3s3.41-1.28 3.86-3H22V6zM16 9c-1.1 0-2-.9-2-2s.9-2 2-2 2 .9 2 2-.9 2-2 2"/></svg>

<?xml version="1.0" encoding="UTF-8"?><!DOCTYPE svg PUBLIC "-//W3C//DTD SVG 1.1//EN" "http://www.w3.org/Graphics/SVG/1.1/DTD/svg11.dtd"><svg xmlns="http://www.w3.org/2000/svg" xmlns:xlink="http://www.w3.org/1999/xlink" version="1.1" id="mdi-tune-variant" width="24" height="24" viewBox="0 0 24 24"><path d="M8 13C6.14 13 4.59 14.28 4.14 16H2V18H4.14C4.59 19.72 6.14 21 8 21S11.41 19.72 11.86 18H22V16H11.86C11.41 14.28 9.86 13 8 13M8 19C6.9 19 6 18.1 6 17C6 15.9 6.9 15 8 15S10 15.9 10 17C10 18.1 9.1 19 8 19M19.86 6C19.41 4.28 17.86 3 16 3S12.59 4.28 12.14 6H2V8H12.14C12.59 9.72 14.14 11 16 11S19.41 9.72 19.86 8H22V6H19.86M16 9C14.9 9 14 8.1 14 7C14 5.9 14.9 5 16 5S18 5.9 18 7C18 8.1 17.1 9 16 9Z" /></svg>
